X:18685
T:Where's the Cat
M:6/8
L:1/8
S:Jackie Daly
R:Jig
K:A
E|EFE A2E|F2E A2E|EFE A2c|BcA F2E|!
EFE A2E|F2E A2e|cec d2c|BcA F2:|!
|:E|cBc e2c|BAF d2c|cBc e2c|BcA F2E|!
cBc e2c|BAF d2a|faf e2c|BcA F2:|!


